cssgg/bookmark.svg

<svg
  width="24"
  height="24"
  viewBox="0 0 24 24"
  fill="none"
  xmlns="http://www.w3.org/2000/svg"
>
  <path
    fill-rule="evenodd"
    clip-rule="evenodd"
    d="M19 20H17.1717L12.7072 15.5354C12.3166 15.1449 11.6835 15.1449 11.2929 15.5354L6.82843 20L5 20V7C5 5.34315 6.34315 4 8 4H16C17.6569 4 19 5.34314 19 7V20ZM17 7C17 6.44772 16.5523 6 16 6H8C7.44772 6 7 6.44772 7 7V17L9.87873 14.1212C11.0503 12.9497 12.9498 12.9497 14.1214 14.1212L17 16.9999V7Z"
    fill="currentColor"
  />
</svg>

<svg viewBox="0 0 24 24" xmlns="http://www.w3.org/2000/svg"><path fill-rule="evenodd" d="M19 20h-1.83l-4.47-4.47c-.4-.4-1.03-.4-1.42 0l-4.47 4.46H4.98v-13c0-1.66 1.34-3 3-3h8c1.65 0 3 1.34 3 3v13ZM17 7c0-.56-.45-1-1-1H8c-.56 0-1 .44-1 1v10l2.87-2.88c1.17-1.18 3.07-1.18 4.24 0l2.87 2.87v-10Z"/></svg>
